svg/24/logo-youtube.svg

<svg width="24" height="24" viewBox="0 0 24 24" fill="currentColor" xmlns="http://www.w3.org/2000/svg"><path fill-rule="evenodd" clip-rule="evenodd" d="M20.5968 4.75955C21.544 5.01309 22.2883 5.75741 22.5418 6.70457H22.54C23 8.41958 23 11.9999 23 11.9999C23 11.9999 23 15.5803 22.54 17.2953C22.2865 18.2424 21.5421 18.9868 20.595 19.2403C18.88 19.7003 12 19.7003 12 19.7003C12 19.7003 5.12002 19.7003 3.405 19.2403C2.45785 18.9868 1.71353 18.2424 1.45999 17.2953C1 15.5803 1 11.9999 1 11.9999C1 11.9999 1 8.41958 1.45999 6.70457C1.71353 5.75741 2.45785 5.01309 3.405 4.75955C5.12002 4.29956 12 4.29956 12 4.29956C12 4.29956 18.88 4.29956 20.5968 4.75955ZM15.5171 12L9.79977 15.2996V8.70032L15.5171 12Z"/></svg>

<svg xmlns="http://www.w3.org/2000/svg" width="24" height="24" fill="currentColor" viewBox="0 0 24 24">
  <path fill-rule="evenodd" d="M20.597 4.76a2.755 2.755 0 0 1 1.945 1.945h-.002C23 8.42 23 12 23 12s0 3.58-.46 5.296a2.755 2.755 0 0 1-1.945 1.945C18.88 19.7 12 19.7 12 19.7s-6.88 0-8.595-.46a2.755 2.755 0 0 1-1.945-1.945C1 15.58 1 12 1 12s0-3.58.46-5.295A2.755 2.755 0 0 1 3.405 4.76C5.12 4.3 12 4.3 12 4.3s6.88 0 8.597.46ZM15.517 12 9.8 15.3V8.7l5.717 3.3Z" clip-rule="evenodd"/>
</svg>
